public/images/publishers/trello.svg

<svg fill="none" height="91" viewBox="0 0 307 91" width="307" xmlns="http://www.w3.org/2000/svg" xmlns:xlink="http://www.w3.org/1999/xlink"><linearGradient id="a" gradientUnits="userSpaceOnUse" x1="79.8242" x2="79.8242" y1="84.5913" y2="49"><stop offset="0" stop-color="#0052cc"/><stop offset="1" stop-color="#2684ff"/></linearGradient><path clip-rule="evenodd" d="m93.3863 49h-27.1527c-1.1219 0-2.1978.4452-2.9916 1.238-.7938.7927-1.2405 1.868-1.242 2.9898v27.1128c-.0022.5574.1056 1.1098.3174 1.6254.2117.5156.5232.9843.9165 1.3793.3934.3949.8608.7083 1.3756.9221.5147.2138 1.0667.3239 1.6241.3239h27.1527c.5569-.0008 1.1082-.1114 1.6223-.3256.5141-.2141.9809-.5276 1.3736-.9225.3928-.3948.7037-.8633.9151-1.3785.2114-.5153.3191-1.0672.3168-1.6241v-27.1128c-.0015-1.1208-.4474-2.1953-1.2399-2.9878-.7926-.7926-1.8671-1.2385-2.9879-1.24zm-16.0269 25.6351c-.0007.1863-.0383.3706-.1104.5424-.0722.1717-.1776.3275-.3101.4585-.1325.1309-.2896.2344-.4622.3045-.1726.07-.3574.1053-.5437.1038h-5.9338c-.3727-.0015-.7297-.1506-.9928-.4147-.2631-.2642-.4107-.6218-.4107-.9945v-17.6587c0-.3728.1476-.7304.4107-.9945.2631-.2642.6201-.4133.9928-.4148h5.9338c.3733.0015.7309.1505.9949.4144.2639.264.4129.6216.4144.9949zm13.6933-8.1076c0 .1865-.037.3712-.1089.5433-.0718.1721-.1772.3282-.3099.4593-.1326.1311-.29.2345-.463.3043s-.3581.1046-.5446.1023h-5.9337c-.3733-.0015-.7309-.1504-.9949-.4144-.2639-.2639-.4129-.6215-.4144-.9948v-9.5511c.0015-.3733.1505-.7309.4144-.9949.264-.2639.6216-.4129.9949-.4144h5.9337c.3728.0015.7298.1506.9929.4148.263.2641.4107.6217.4107.9945z" fill="url(#a)" fill-rule="evenodd"/><g fill="#293856"><path d="m135.796 51.6075v6.8809h-8.153v26.1029h-7.863v-26.1029h-8.153v-6.8809z"/><path d="m145.803 84.5913h-7.269v-25.675h7.269v4.9182c1.381-3.4633 3.589-5.523 7.52-5.272v7.6055c-5.135-.3993-7.52.8559-7.52 4.9696z"/><path d="m193.034 84.791c-4.764 0-7.76-2.2823-7.76-7.6797v-28.1113h7.321v27.1071c0 1.5576 1.027 2.1111 2.282 2.1111.362.0073.724-.0099 1.084-.0514v6.3275c-.957.2332-1.942.333-2.927.2967z"/><path d="m208.302 84.791c-4.764 0-7.765-2.2823-7.765-7.6797v-28.1113h7.32v27.1071c0 1.5576 1.033 2.1111 2.311 2.1111.36.0074.72-.0097 1.078-.0514v6.3275c-.963.2354-1.954.3353-2.944.2967z"/><path d="m214.755 71.7424c0-7.9307 4.564-13.3567 12.427-13.3567 7.862 0 12.329 5.4088 12.329 13.3567 0 7.9478-4.519 13.4537-12.329 13.4537-7.811 0-12.427-5.5743-12.427-13.4537zm7.126 0c0 3.8627 1.621 6.9265 5.301 6.9265s5.209-3.0638 5.209-6.9265-1.569-6.8467-5.209-6.8467c-3.641 0-5.301 2.9783-5.301 6.8467z"/><path d="m163.137 74.0645c2.035.2236 4.08.3436 6.128.3594 5.568 0 10.27-1.4948 10.27-6.8866 0-5.232-4.833-9.1631-10.647-9.1631-7.828 0-12.843 5.677-12.843 13.6078 0 8.2331 4.325 13.1227 14.098 13.1227 2.9.0236 5.779-.491 8.49-1.5176v-6.1506c-2.51.8045-5.334 1.6032-8.233 1.6032-3.891 0-6.601-1.278-7.263-4.9752zm5.603-10.0874c2.059 0 3.714 1.3978 3.714 3.3092 0 2.4591-2.596 3.2293-5.586 3.2293-1.272-.0058-2.542-.1069-3.8-.3024.095-1.1989.439-2.3648 1.01-3.4233.458-.8389 1.132-1.5407 1.951-2.033.819-.4924 1.755-.7576 2.711-.7684z"/></g><path d="m52.8117 27.6124c1.3705 0 2.6893-.1551 4.215-.4654l1.4223 3.853h2.6117l-6.6975-16.9895h-2.9479l-6.6975 16.9895h2.6117l1.4223-3.8272c1.4481.2845 2.7669.4396 4.0599.4396zm0-2.0687c-1.0344 0-2.0946-.1034-3.3617-.3103l3.4392-9.3352 3.4393 9.3093c-1.3188.2069-2.4307.3362-3.5168.3362zm24.388-1.0085c0 2.9997-1.293 4.6547-3.8013 4.6547-1.8877 0-3.5169-1.2671-3.5169-4.1375v-1.0344c0-2.8703 1.7843-4.1374 3.7755-4.1374 2.3015 0 3.5427 1.5515 3.5427 4.6546zm-3.2065 6.7234c3.6202 0 5.4304-3.0772 5.4304-6.7234 0-3.8013-1.7326-6.7234-5.1719-6.7234-1.9911 0-3.5427.8792-4.3702 2.5859v-7.7318h-2.2238v18.3341h2.2238v-2.2756c.7758 1.6808 2.2239 2.5342 4.1117 2.5342zm12.999-.2845v-1.9911c-.2586.0258-.4137.0258-.6464.0258-.9568 0-1.7326-.4137-1.7326-1.5774v-14.7655h-2.2239v15.0241c0 2.3791 1.3447 3.3876 3.4651 3.3876.5689 0 .9568-.0517 1.1378-.1035zm7.78.2845c3.853 0 6.1028-2.8704 6.1028-6.7493 0-3.8788-2.2498-6.6975-6.1028-6.6975-3.8789 0-6.1545 2.8187-6.1545 6.6975 0 3.8789 2.2756 6.7493 6.1545 6.7493zm0-11.378c2.7411 0 3.9306 2.1721 3.9306 4.6287 0 2.4567-1.1895 4.6806-3.9306 4.6806-2.7669 0-3.9823-2.2239-3.9823-4.6806 0-2.4566 1.2154-4.6287 3.9823-4.6287zm17.7898 10.085c0 2.4049-1.112 4.1375-4.344 4.1375-1.604 0-3.078-.3103-4.5-.7758v2.1722c1.241.4137 2.431.6982 4.603.6982 4.629 0 6.413-2.5601 6.413-6.3614v-11.7659h-2.172v2.2756c-.776-1.6808-2.224-2.5342-4.112-2.5342-3.594 0-5.378 3.0773-5.378 6.7234 0 3.8013 1.706 6.7234 5.12 6.7234 1.991 0 3.542-.8792 4.37-2.5859zm-7.318-5.4304c0-2.9997 1.293-4.6546 3.801-4.6546 1.888 0 3.517 1.2671 3.517 4.1374v1.0344c0 2.8704-1.784 4.1375-3.776 4.1375-2.301 0-3.542-1.5516-3.542-4.6547zm20.967-7.8353c0-1.1637.672-1.9653 2.043-1.9653.517 0 1.008.0517 1.396.1293v-2.0429c-.388-.1034-.827-.2069-1.5-.2069-2.767 0-4.111 1.6292-4.111 4.0341v1.4222h-2.095v2.0688h2.095v10.8608h2.172v-10.8608h3.336v-2.0688h-3.336zm10.998 14.5587c3.853 0 6.102-2.8704 6.102-6.7493 0-3.8788-2.249-6.6975-6.102-6.6975-3.879 0-6.155 2.8187-6.155 6.6975 0 3.8789 2.276 6.7493 6.155 6.7493zm0-11.378c2.741 0 3.93 2.1721 3.93 4.6287 0 2.4567-1.189 4.6806-3.93 4.6806-2.767 0-3.983-2.2239-3.983-4.6806 0-2.4566 1.216-4.6287 3.983-4.6287zm11.247 3.4909c0-2.741 1.732-3.5944 4.577-3.3099v-2.1722c-2.534-.1552-3.827.9309-4.577 2.4566v-2.2756h-2.172v12.9296h2.172zm14.61 3.6203v-6.8526h3.44v-2.0688h-3.44v-2.7411h-2.172v2.7411h-2.095v2.0688h2.095v6.9043c0 2.405 1.345 4.0341 4.112 4.0341.672 0 1.112-.1035 1.5-.2069v-2.1463c-.388.0776-.88.181-1.397.181-1.37 0-2.043-.7758-2.043-1.9136zm11.398-7.163c2.224 0 3.31 1.3706 3.44 3.7755h-7.215c.233-2.2498 1.422-3.7755 3.775-3.7755zm4.965 10.654v-2.0429c-1.163.4138-2.43.6982-3.93.6982-3.052 0-4.474-1.4222-4.784-3.6202h9.438v-1.0086c0-3.9305-1.603-6.6975-5.585-6.6975-3.931 0-6.103 2.7928-6.103 6.6975 0 3.9565 2.12 6.7493 6.956 6.7493 1.319 0 2.948-.2069 4.008-.7758zm5.209-5.9476c0-2.9997 1.293-4.6546 3.801-4.6546 1.888 0 3.517 1.2671 3.517 4.1374v1.0344c0 2.8704-1.784 4.1375-3.776 4.1375-2.301 0-3.542-1.5516-3.542-4.6547zm7.318 6.4648h2.224v-12.9296h-2.224v2.2756c-.776-1.6808-2.224-2.5342-4.112-2.5342-3.62 0-5.43 3.0773-5.43 6.7234 0 3.8013 1.732 6.7234 5.172 6.7234 1.991 0 3.542-.8792 4.37-2.5859zm16.955-7.1888c0-2.6118 1.423-3.9824 3.491-3.9824 2.121 0 3.052 1.3189 3.052 3.9824v7.1888h2.224v-7.5767c0-3.6462-1.604-5.6115-4.5-5.6115-2.146 0-3.879 1.1637-4.603 3.1548-.646-2.0428-2.146-3.1548-4.344-3.1548-1.733 0-3.258.8534-4.086 2.3791v-2.1205h-2.224v12.9296h2.224v-7.1888c0-2.6118 1.422-3.9824 3.491-3.9824 2.121 0 3.051 1.0344 3.051 3.3617v7.8095h2.224zm21.174 3.672c0-2.2498-1.449-3.31-4.319-4.0082-2.379-.5689-3-1.1378-3-2.0429 0-1.0085.88-1.5774 2.509-1.5774 1.37 0 2.637.4137 4.189 1.1895v-2.3014c-.957-.5172-2.483-.931-4.163-.931-2.948 0-4.681 1.3706-4.681 3.6203 0 2.1205 1.215 3.2324 4.086 3.9306 2.456.5948 3.206 1.1637 3.206 2.1463 0 1.0085-.879 1.7067-2.586 1.7067-1.629 0-3.491-.6206-4.602-1.2671v2.3532c.982.5172 2.56.9568 4.499.9568 3.465 0 4.862-1.6291 4.862-3.7754zm17.154-2.948c0 2.9997-1.293 4.6547-3.801 4.6547-1.888 0-3.517-1.2671-3.517-4.1375v-1.0344c0-2.8703 1.784-4.1374 3.775-4.1374 2.302 0 3.543 1.5515 3.543 4.6546zm-3.207 6.7234c3.621 0 5.431-3.0772 5.431-6.7234 0-3.8013-1.733-6.7234-5.172-6.7234-1.991 0-3.543.8792-4.37 2.5859v-7.7318h-2.224v18.3341h2.224v-2.2756c.775 1.6808 2.224 2.5342 4.111 2.5342zm12.572-1.0861c-1.06 2.8187-1.862 4.0599-3.672 4.0599-.647 0-1.5-.0776-2.25-.3103v1.9136c.647.2586 1.267.362 2.379.362 3.284 0 4.112-1.9136 5.56-5.6114l4.887-12.5159h-2.379l-4.137 11.0677-4.138-11.0677h-2.379l4.681 12.1021z" fill="#172b4d"/></svg>

<svg width="307" height="91" viewBox="0 0 307 91" fill="none" xmlns="http://www.w3.org/2000/svg">
<path fill-rule="evenodd" clip-rule="evenodd" d="M93.3863 49H66.2336C65.1117 49 64.0358 49.4452 63.242 50.238C62.4482 51.0307 62.0015 52.106 62 53.2278V80.3406C61.9978 80.898 62.1056 81.4504 62.3174 81.966C62.5291 82.4816 62.8406 82.9503 63.2339 83.3453C63.6273 83.7402 64.0947 84.0536 64.6095 84.2674C65.1242 84.4812 65.6762 84.5913 66.2336 84.5913H93.3863C93.9432 84.5905 94.4945 84.4799 95.0086 84.2657C95.5227 84.0516 95.9895 83.7381 96.3822 83.3432C96.775 82.9484 97.0859 82.4799 97.2973 81.9647C97.5087 81.4494 97.6164 80.8975 97.6141 80.3406V53.2278C97.6126 52.107 97.1667 51.0325 96.3742 50.24C95.5816 49.4474 94.5071 49.0015 93.3863 49ZM77.3594 74.6351C77.3587 74.8214 77.3211 75.0057 77.249 75.1775C77.1768 75.3492 77.0714 75.505 76.9389 75.636C76.8064 75.7669 76.6493 75.8704 76.4767 75.9405C76.3041 76.0105 76.1193 76.0458 75.933 76.0443H69.9992C69.6265 76.0428 69.2695 75.8937 69.0064 75.6296C68.7433 75.3654 68.5957 75.0078 68.5957 74.6351V56.9764C68.5957 56.6036 68.7433 56.246 69.0064 55.9819C69.2695 55.7177 69.6265 55.5686 69.9992 55.5671H75.933C76.3063 55.5686 76.6639 55.7176 76.9279 55.9815C77.1918 56.2455 77.3408 56.6031 77.3423 56.9764L77.3594 74.6351ZM91.0527 66.5275C91.0527 66.714 91.0157 66.8987 90.9438 67.0708C90.872 67.2429 90.7666 67.399 90.6339 67.5301C90.5013 67.6612 90.3439 67.7646 90.1709 67.8344C89.9979 67.9042 89.8128 67.939 89.6263 67.9367H83.6926C83.3193 67.9352 82.9617 67.7863 82.6977 67.5223C82.4338 67.2584 82.2848 66.9008 82.2833 66.5275V56.9764C82.2848 56.6031 82.4338 56.2455 82.6977 55.9815C82.9617 55.7176 83.3193 55.5686 83.6926 55.5671H89.6263C89.9991 55.5686 90.3561 55.7177 90.6192 55.9819C90.8822 56.246 91.0299 56.6036 91.0299 56.9764L91.0527 66.5275Z" fill="url(#paint0_linear)"/>
<path d="M135.796 51.6075V58.4884H127.643V84.5913H119.78V58.4884H111.627V51.6075H135.796Z" fill="#293856"/>
<path d="M145.803 84.5913H138.534V58.9163H145.803V63.8345C147.184 60.3712 149.392 58.3115 153.323 58.5625V66.168C148.188 65.7687 145.803 67.0239 145.803 71.1376V84.5913Z" fill="#293856"/>
<path d="M193.034 84.791C188.27 84.791 185.274 82.5087 185.274 77.1113V49H192.595V76.1071C192.595 77.6647 193.622 78.2182 194.877 78.2182C195.239 78.2255 195.601 78.2083 195.961 78.1668V84.4943C195.004 84.7275 194.019 84.8273 193.034 84.791Z" fill="#293856"/>
<path d="M208.302 84.791C203.538 84.791 200.537 82.5087 200.537 77.1113V49H207.857V76.1071C207.857 77.6647 208.89 78.2182 210.168 78.2182C210.528 78.2256 210.888 78.2085 211.246 78.1668V84.4943C210.283 84.7297 209.292 84.8296 208.302 84.791Z" fill="#293856"/>
<path d="M214.755 71.7424C214.755 63.8117 219.319 58.3857 227.182 58.3857C235.044 58.3857 239.511 63.7945 239.511 71.7424C239.511 79.6902 234.992 85.1961 227.182 85.1961C219.371 85.1961 214.755 79.6218 214.755 71.7424ZM221.881 71.7424C221.881 75.6051 223.502 78.6689 227.182 78.6689C230.862 78.6689 232.391 75.6051 232.391 71.7424C232.391 67.8797 230.822 64.8957 227.182 64.8957C223.541 64.8957 221.881 67.874 221.881 71.7424Z" fill="#293856"/>
<path d="M163.137 74.0645C165.172 74.2881 167.217 74.4081 169.265 74.4239C174.833 74.4239 179.535 72.9291 179.535 67.5373C179.535 62.3053 174.702 58.3742 168.888 58.3742C161.06 58.3742 156.045 64.0512 156.045 71.982C156.045 80.2151 160.37 85.1047 170.143 85.1047C173.043 85.1283 175.922 84.6137 178.633 83.5871V77.4365C176.123 78.241 173.299 79.0397 170.4 79.0397C166.509 79.0397 163.799 77.7617 163.137 74.0645ZM168.74 63.9771C170.799 63.9771 172.454 65.3749 172.454 67.2863C172.454 69.7454 169.858 70.5156 166.868 70.5156C165.596 70.5098 164.326 70.4087 163.068 70.2132C163.163 69.0143 163.507 67.8484 164.078 66.7899C164.536 65.951 165.21 65.2492 166.029 64.7569C166.848 64.2645 167.784 63.9993 168.74 63.9885V63.9771Z" fill="#293856"/>
<path d="M52.8117 27.6124C54.1822 27.6124 55.501 27.4573 57.0267 27.147L58.449 31H61.0607L54.3632 14.0105H51.4153L44.7178 31H47.3295L48.7518 27.1728C50.1999 27.4573 51.5187 27.6124 52.8117 27.6124ZM52.8117 25.5437C51.7773 25.5437 50.7171 25.4403 49.45 25.2334L52.8892 15.8982L56.3285 25.2075C55.0097 25.4144 53.8978 25.5437 52.8117 25.5437ZM77.1997 24.5352C77.1997 27.5349 75.9067 29.1899 73.3984 29.1899C71.5107 29.1899 69.8815 27.9228 69.8815 25.0524V24.018C69.8815 21.1477 71.6658 19.8806 73.657 19.8806C75.9585 19.8806 77.1997 21.4321 77.1997 24.5352ZM73.9932 31.2586C77.6134 31.2586 79.4236 28.1814 79.4236 24.5352C79.4236 20.7339 77.691 17.8118 74.2517 17.8118C72.2606 17.8118 70.709 18.691 69.8815 20.3977V12.6659H67.6577V31H69.8815V28.7244C70.6573 30.4052 72.1054 31.2586 73.9932 31.2586ZM86.9922 30.9741V28.983C86.7336 29.0088 86.5785 29.0088 86.3458 29.0088C85.389 29.0088 84.6132 28.5951 84.6132 27.4314V12.6659H82.3893V27.69C82.3893 30.0691 83.734 31.0776 85.8544 31.0776C86.4233 31.0776 86.8112 31.0259 86.9922 30.9741ZM94.7722 31.2586C98.6252 31.2586 100.875 28.3882 100.875 24.5093C100.875 20.6305 98.6252 17.8118 94.7722 17.8118C90.8933 17.8118 88.6177 20.6305 88.6177 24.5093C88.6177 28.3882 90.8933 31.2586 94.7722 31.2586ZM94.7722 19.8806C97.5133 19.8806 98.7028 22.0527 98.7028 24.5093C98.7028 26.966 97.5133 29.1899 94.7722 29.1899C92.0053 29.1899 90.7899 26.966 90.7899 24.5093C90.7899 22.0527 92.0053 19.8806 94.7722 19.8806ZM112.562 29.9656C112.562 32.3705 111.45 34.1031 108.218 34.1031C106.614 34.1031 105.14 33.7928 103.718 33.3273V35.4995C104.959 35.9132 106.149 36.1977 108.321 36.1977C112.95 36.1977 114.734 33.6376 114.734 29.8363V18.0704H112.562V20.346C111.786 18.6652 110.338 17.8118 108.45 17.8118C104.856 17.8118 103.072 20.8891 103.072 24.5352C103.072 28.3365 104.778 31.2586 108.192 31.2586C110.183 31.2586 111.734 30.3794 112.562 28.6727V29.9656ZM105.244 24.5352C105.244 21.5355 106.537 19.8806 109.045 19.8806C110.933 19.8806 112.562 21.1477 112.562 24.018V25.0524C112.562 27.9228 110.778 29.1899 108.786 29.1899C106.485 29.1899 105.244 27.6383 105.244 24.5352ZM126.211 16.6999C126.211 15.5362 126.883 14.7346 128.254 14.7346C128.771 14.7346 129.262 14.7863 129.65 14.8639V12.821C129.262 12.7176 128.823 12.6141 128.15 12.6141C125.383 12.6141 124.039 14.2433 124.039 16.6482V18.0704H121.944V20.1392H124.039V31H126.211V20.1392H129.547V18.0704H126.211V16.6999ZM137.209 31.2586C141.062 31.2586 143.311 28.3882 143.311 24.5093C143.311 20.6305 141.062 17.8118 137.209 17.8118C133.33 17.8118 131.054 20.6305 131.054 24.5093C131.054 28.3882 133.33 31.2586 137.209 31.2586ZM137.209 19.8806C139.95 19.8806 141.139 22.0527 141.139 24.5093C141.139 26.966 139.95 29.1899 137.209 29.1899C134.442 29.1899 133.226 26.966 133.226 24.5093C133.226 22.0527 134.442 19.8806 137.209 19.8806ZM148.456 23.3715C148.456 20.6305 150.188 19.7771 153.033 20.0616V17.8894C150.499 17.7342 149.206 18.8203 148.456 20.346V18.0704H146.284V31H148.456V23.3715ZM163.066 26.9918V20.1392H166.506V18.0704H163.066V15.3293H160.894V18.0704H158.799V20.1392H160.894V27.0435C160.894 29.4485 162.239 31.0776 165.006 31.0776C165.678 31.0776 166.118 30.9741 166.506 30.8707V28.7244C166.118 28.802 165.626 28.9054 165.109 28.9054C163.739 28.9054 163.066 28.1296 163.066 26.9918ZM174.464 19.8288C176.688 19.8288 177.774 21.1994 177.904 23.6043H170.689C170.922 21.3545 172.111 19.8288 174.464 19.8288ZM179.429 30.4828V28.4399C178.266 28.8537 176.999 29.1381 175.499 29.1381C172.447 29.1381 171.025 27.7159 170.715 25.5179H180.153V24.5093C180.153 20.5788 178.55 17.8118 174.568 17.8118C170.637 17.8118 168.465 20.6046 168.465 24.5093C168.465 28.4658 170.585 31.2586 175.421 31.2586C176.74 31.2586 178.369 31.0517 179.429 30.4828ZM184.638 24.5352C184.638 21.5355 185.931 19.8806 188.439 19.8806C190.327 19.8806 191.956 21.1477 191.956 24.018V25.0524C191.956 27.9228 190.172 29.1899 188.18 29.1899C185.879 29.1899 184.638 27.6383 184.638 24.5352ZM191.956 31H194.18V18.0704H191.956V20.346C191.18 18.6652 189.732 17.8118 187.844 17.8118C184.224 17.8118 182.414 20.8891 182.414 24.5352C182.414 28.3365 184.146 31.2586 187.586 31.2586C189.577 31.2586 191.128 30.3794 191.956 28.6727V31ZM208.911 23.8112C208.911 21.1994 210.334 19.8288 212.402 19.8288C214.523 19.8288 215.454 21.1477 215.454 23.8112V31H217.678V23.4233C217.678 19.7771 216.074 17.8118 213.178 17.8118C211.032 17.8118 209.299 18.9755 208.575 20.9666C207.929 18.9238 206.429 17.8118 204.231 17.8118C202.498 17.8118 200.973 18.6652 200.145 20.1909V18.0704H197.921V31H200.145V23.8112C200.145 21.1994 201.567 19.8288 203.636 19.8288C205.757 19.8288 206.687 20.8632 206.687 23.1905V31H208.911V23.8112ZM230.085 27.4832C230.085 25.2334 228.636 24.1732 225.766 23.475C223.387 22.9061 222.766 22.3372 222.766 21.4321C222.766 20.4236 223.646 19.8547 225.275 19.8547C226.645 19.8547 227.912 20.2684 229.464 21.0442V18.7428C228.507 18.2256 226.981 17.8118 225.301 17.8118C222.353 17.8118 220.62 19.1824 220.62 21.4321C220.62 23.5526 221.835 24.6645 224.706 25.3627C227.162 25.9575 227.912 26.5264 227.912 27.509C227.912 28.5175 227.033 29.2157 225.326 29.2157C223.697 29.2157 221.835 28.5951 220.724 27.9486V30.3018C221.706 30.819 223.284 31.2586 225.223 31.2586C228.688 31.2586 230.085 29.6295 230.085 27.4832ZM247.239 24.5352C247.239 27.5349 245.946 29.1899 243.438 29.1899C241.55 29.1899 239.921 27.9228 239.921 25.0524V24.018C239.921 21.1477 241.705 19.8806 243.696 19.8806C245.998 19.8806 247.239 21.4321 247.239 24.5352ZM244.032 31.2586C247.653 31.2586 249.463 28.1814 249.463 24.5352C249.463 20.7339 247.73 17.8118 244.291 17.8118C242.3 17.8118 240.748 18.691 239.921 20.3977V12.6659H237.697V31H239.921V28.7244C240.696 30.4052 242.145 31.2586 244.032 31.2586ZM256.604 30.1725C255.544 32.9912 254.742 34.2324 252.932 34.2324C252.285 34.2324 251.432 34.1548 250.682 33.9221V35.8357C251.329 36.0943 251.949 36.1977 253.061 36.1977C256.345 36.1977 257.173 34.2841 258.621 30.5863L263.508 18.0704H261.129L256.992 29.1381L252.854 18.0704H250.475L255.156 30.1725H256.604Z" fill="#172B4D"/>
<defs>
<linearGradient id="paint0_linear" x1="79.8242" y1="84.5913" x2="79.8242" y2="49" gradientUnits="userSpaceOnUse">
<stop stop-color="#0052CC"/>
<stop offset="1" stop-color="#2684FF"/>
</linearGradient>
</defs>
</svg>
